X:55
T:Croghan Hill
Z: id:dc-reel-49
M:C
L:1/8
K:G Major
dB|G3B dBB2|g2fg egdB|c2Ac B2GB|Add^c dedB|!
G3B dBB2|g2fg egdB|c2Ac B2GB|AGFA G2:|!
Bd|g3f gdBd|g2fg egdB|c2Ac B2GB|Add^c ded|!
[1 f|g3f gdBd|g2fg egdB|c2Ac B2GB|AGFA G2:|!
[2 B|G3B dBB2|g2fg egdB|c2Ac B2GB|AGFA G2|]!

